svg/fluentui-system-icons/ic_fluent_panel_left_text_add_48_filled.svg

<svg width="48" height="48" viewBox="0 0 48 48" fill="none" xmlns="http://www.w3.org/2000/svg">
<path d="M10.25 7C6.79822 7 4 9.79822 4 13.25V34.75C4 38.2018 6.79822 41 10.25 41H23.4644C23.053 40.2107 22.7203 39.3739 22.4766 38.5H19L19 9.5H37.75C39.8211 9.5 41.5 11.1789 41.5 13.25V23.7392C42.4086 24.2647 43.2476 24.8971 44 25.6191V13.25C44 9.79822 41.2018 7 37.75 7H10.25ZM8.5 15C8.5 14.3096 9.05964 13.75 9.75 13.75H13.25C13.9404 13.75 14.5 14.3096 14.5 15C14.5 15.6904 13.9404 16.25 13.25 16.25H9.75C9.05964 16.25 8.5 15.6904 8.5 15ZM8.5 24C8.5 23.3096 9.05964 22.75 9.75 22.75H13.25C13.9404 22.75 14.5 23.3096 14.5 24C14.5 24.6904 13.9404 25.25 13.25 25.25H9.75C9.05964 25.25 8.5 24.6904 8.5 24ZM9.75 31.75H13.25C13.9404 31.75 14.5 32.3096 14.5 33C14.5 33.6904 13.9404 34.25 13.25 34.25H9.75C9.05964 34.25 8.5 33.6904 8.5 33C8.5 32.3096 9.05964 31.75 9.75 31.75ZM46 35C46 41.0751 41.0751 46 35 46C28.9249 46 24 41.0751 24 35C24 28.9249 28.9249 24 35 24C41.0751 24 46 28.9249 46 35ZM36 28C36 27.4477 35.5523 27 35 27C34.4477 27 34 27.4477 34 28V34H28C27.4477 34 27 34.4477 27 35C27 35.5523 27.4477 36 28 36H34V42C34 42.5523 34.4477 43 35 43C35.5523 43 36 42.5523 36 42V36H42C42.5523 36 43 35.5523 43 35C43 34.4477 42.5523 34 42 34H36V28Z" fill="#212121"/>
</svg>

<svg xmlns="http://www.w3.org/2000/svg" width="48" height="48"><path d="M10.25 7A6.25 6.25 0 0 0 4 13.25v21.5A6.25 6.25 0 0 0 10.25 41h13.214a12.911 12.911 0 0 1-.987-2.5H19v-29h18.75a3.75 3.75 0 0 1 3.75 3.75v10.49a13.044 13.044 0 0 1 2.5 1.88V13.25A6.25 6.25 0 0 0 37.75 7h-27.5ZM8.5 15c0-.69.56-1.25 1.25-1.25h3.5a1.25 1.25 0 1 1 0 2.5h-3.5c-.69 0-1.25-.56-1.25-1.25Zm0 9c0-.69.56-1.25 1.25-1.25h3.5a1.25 1.25 0 1 1 0 2.5h-3.5c-.69 0-1.25-.56-1.25-1.25Zm1.25 7.75h3.5a1.25 1.25 0 1 1 0 2.5h-3.5a1.25 1.25 0 1 1 0-2.5ZM46 35c0 6.075-4.925 11-11 11s-11-4.925-11-11 4.925-11 11-11 11 4.925 11 11Zm-10-7a1 1 0 1 0-2 0v6h-6a1 1 0 1 0 0 2h6v6a1 1 0 1 0 2 0v-6h6a1 1 0 1 0 0-2h-6v-6Z"/></svg>
